X:1
T: Concerto Fminor n5
C:J.S.Bach
L:1/16
Q:1/4=66
M:2/4
K:Abmaj
V:1
 F2F2- FcA=E | F=EF2- FcAE | (3F_G=EF2- FcAF | d2B2 (3dB=AB2 | B2B2- Bfd=A | B=AB2- BfdA |  (3B_c=AB2- BfdB | =e2c2e/4f/4e/=de2 | gf=e=d c2B2 | A/4B/4A/GA2- AF=EF | _c=c=dc _c=AGF |  F/4G/4F/4G/4F=E2- EC=DE | F2F2- FcA=E | F=EF2- FcAF | (3dcB(3ABG (3=edc(3BcA |  (3fed(3cdB (3gf=e(3dcB | (3AGF(3BAG (3cBA(3dBG | (3=EGBB2- (3BGA(3BAG |  (3Ad_c(3=c=EF (3BAG(3AGF | (3FCB,(3A,B,C F,4 | (3cfga2- (3afg(3agf |  (3=efgB2- (3Bcd(3GAB | (3=EFG(3CEG (3BAG(3dcB | (3ABcF2- (3FFG(3=AGF |  (3cB=A(3edc (3_gfe(3=ac'e | (3dcBb2- (3bga(3bag | (3fec(3dcd (3bag(3fge | (3dBdc2- (3cAB(3cBA |  (3_GFd(3FEc (3EDB(3DCA | (3GAB(3AGF (3GFE(3dcB | (3cfe(3dcBA/4B/4A/4B/4AGA | =d2e2- (3efg(3agf |  (3edc(3fedc/4d/4c/4d/4cBA | (3AEA(3ceg (3aec(3AEC | e2A2- AecG | AGA2- AecG | (3ABGA2- AecG |  A2A,2 A/G/A2c/e/ | a3e/d/ (3cde(3dcB | B2=A2- (3A_AB(3BAG | (3Fce(3=Ae_g- ge(3fce- |  (3edc(3dB=A (3BFDB,B- | (3Bcd(3ef_g A>gf2 | (3_GAB(3cde F>ed2 |  (3Edc(3DcB (3CB=A(3_GF=E | (3F_G=EF2- (3FCB,(3=A,B,C | (3z =AB(3cAE (3z AB(3cAE |  (3z Bc(3dBF (3z Bc(3dBF | (3z cd(3ec=A (3z cd(3ecA | (3z de(3fdB (3z de(3fdB |  (3z ef(3_gec (3z ef(3gec | (3z de(3fdB (3z de(3fdB | (3z cd(3ecB (3z cd(3ecB |  (3z cd(3ec=A (3z cd(3ecA | e/d/e/d/e/d/e/d/ e/d/e/d/e/d/e/d/- | (3ded(3cdB (3efe(3dec |  _g/f/g/f/g/f/g/f/ g/f/g/f/g/f/g/f/- | (3f_gf(3ef=d (3gag(3fge | (3=ac'b(3agf (3e_gf(3edc |  (3d=AB(3eAB (3fAB(3_gAB | (3D=AB(3EAB (3FAB(3_GAB | e4- (3eBA(3_GFE | e4- (3ecB(3=AGF |  (3dBA(3_GFE (3cAG(3FED | (3B_GF(3EDC (3=AF=G(3ABc | (3c=AB(3cde (3e_gf(3edc | (3dfe(3dcB B2=A>B |  =e2f2- (3fg=a(3b_a_g | (3fed(3_gfe d2c/4d/4cB/ | (3BdB(3FBF (3DBF(3DFD | B2 B2- Bfd=A |  B=AB2- BfdA | (3B_c=AB2- BfdB | _g2e2 (3ge=de2 | A2A2- AecG | AGA2- AecG | (3ABGA2- AecA |  f2d2 (3fdcd2- | (3dDC(3DEF (3_GDC(3DFG | (3ADC(3D_GA (3BDC(3DAB | (3cAG(3ABc (3dAG(3Acd |  (3ecB(3cde (3fB=A(3B=ef | gf=e=d c2B2 | A/4B/4A/GA2- AF=EF | _c=c=dc _cAGF |  G/F/G/F/=E2- Ec=d=e | f2f2- fc'a=e | f=ef2- fc'ae | (3fg=ef2- fc'af | (3ba_g(3fed (3edc(3dcB |  (3gf=e(3dcB (3cBA(3BAG | (3Afg(3agf (3Bfg(3agf | (3cfg(3agf (3dfg(3agf | (3gdc(3Bcd (3c=ef(3gfe |  (3fcB(3ABc (3_cfg(3agf | (3=ece(3geg (3bgb(3d'c'b | (3c'af(3cAc (3fcf(3afa |  (3bg=e(3BGB (3eBe(3gfe | (3afc(3AFA (3cAc(3fga | (3_cfa(3afc (3cfa(3afc |  (3B=ef(3geB (3Bef(3geB | (3cAG(3F=EF (3=dAG(3FEF | (3=eAG(3F=EF (3fdc(3B=AB |  c'/b/c'/b/c'/b/c'/b/ c'/b/c'/b/c'/b/c'/b/ | (3bgf(3=e=dc (3_c=ce(3gab |  b/a/b/a/b/a/b/a/ b/a/b/a/b/a/b/a/ | (3aba(3_gaf (3gbc'(3d'bg | (3=ega(3bge (3cdc(3BAG |  F2F2- FcA=E | F=EF2- FcAF | (3dcB(3ABG (3=edc(3BcA | (3fed(3cdB (3gf=e(3dcB |  (3AGF(3BAG (3cBA(3dBG | (3=EGBB2- (3BGA(3BAG | (3Ad_c(3=c=EF (3BAG(3AGF | (3FCB,(3A,B,C F,4- |  F,4 z4 | z8 |